icon-themes/breeze_svg/cmd/lc_inserttreecontrol.svg

<svg viewBox="0 0 24 24" xmlns="http://www.w3.org/2000/svg"><path d="m4 4v7h6v6h1 2v3h7v-7h-7v3h-2v-5-3h2v3h7v-7h-7v3h-2v-3zm1 1h5v5h-5zm9 0h5v5h-5z" fill="#4d4d4d"/></svg>

<svg xmlns="http://www.w3.org/2000/svg" viewBox="0 0 24 24">
 <path 
     style="fill:#4d4d4d" 
     d="M 4 4 L 4 11 L 10 11 L 10 17 L 11 17 L 13 17 L 13 20 L 20 20 L 20 13 L 13 13 L 13 16 L 11 16 L 11 11 L 11 8 L 13 8 L 13 11 L 20 11 L 20 4 L 13 4 L 13 7 L 11 7 L 11 4 L 4 4 z M 5 5 L 10 5 L 10 10 L 5 10 L 5 5 z M 14 5 L 19 5 L 19 10 L 14 10 L 14 5 z "
     />
 </svg>
